X: 25
T: l'Harmonie.
%R: march, reel
Z: 2015 John Chambers <jc:trillian.mit.edu>
S: http://books.google.com/books?id=ipV0y26Vq8EC
B: Giovanni Andrea Gallini  "A New Collection of Forty-Four Cotillions" c.1755 #25
M: C|
L: 1/8
K: Eb
% - - - - - - - - - - - - - - - - - - - - - - - - - - - - -
% Voice 1 staff breaks arranged to fit a wider page:
V: 1
E2 (3(GFE) |\
B2e2 e2e2 | d4 B2 (3(dcB) | f2 (3(dcB) a2 (3(fga) | g2e2 E2 (3(GFE) |\
B2e2 e2e2 | d4 f2 (3(dcB) | b2 (3(gfe) d2c2 | B4 :|
B2 (3(bab) |\
B2b2 a2g2 | g2f2 a2 (3(fga) | g2e2 d2c2 | B4 Eedc |\
B2A2 G2G2 | G4 B2 (3(GFE) | e2 (3(cBA) G2F2 | E4 |]
B2 (3(edc) |\
B2B2 c2c2 | B4 A2(3(FGA) | G2 (3(EFG) F2 (3(DEF) | E2B,2 B2 (3(edc) |\
B2B2 c2c2 | B4 e2Be | g2eg b2 (3(bag) | {g2}f4 |]
F2F2 |\
F2 (3(fga) g2b2 | b4 F2F2 | F2 (3(fga) g2 (3(bag) | {g2}f4 B2 (3(edc) |\
B2B2 c2c2 | B4 E2 (3(edc) | B2 (3(cBA) G2F2 | E4 |]
% - - - - - - - - - - - - - - - - - - - - - - - - - - - - -
% Voice 2 preserves the original staff layout:
V: 2 clef=bass middle=d
e4 | g4 e4 | b4 B4 |\
d4 B4 | e4 e4 | g4 e4 |
b4 B4 | d2e2 f2F2 | B4 :|\
B4 | d4 e4 | B4 B4 |
e4 f4 | g4 a4 | g2f2 e2B2 E4 e4 |\
g2a2 b2B2 | e4 |]\
e4 |
g4 a4 | g4 d4 |\
e4 B4 | E4 e4 | g4 a4 |
g4 g4 | e4 e4 | B4 |]\
B4 | d4 e4 | d4 B4 |
d4 e4 | B4 e4 | g4 a4 |\
g4 e4 | g2a2 b2B2 | e4 |]
% - - - - - - - - - - Dance description - - - - - - - - - -
%%sep 1 1 400
%%center L'Harmonie.
%%begintext align
%%   Le Grand Rond - - - 2/1
%%endtext
%%begintext align
%%   The four Gentlemen half Moulinet, then
%% Allemande with the opposite Ladies - 1/2
%%endtext
%%begintext align
%%   All Eight Poussette with an Allemande pass\`e 1/3
%%endtext
%%begintext align
%%   The four Gentlemen half Moulinet, then
%% Allemande with their Partners - - 1/4
%%endtext
%%sep 1 1 400
